Simply-Black-Circles/scalable/apps/alc.svg

<svg xmlns="http://www.w3.org/2000/svg" width="48" height="48" viewBox="0 0 12.7 12.7"><path d="M6.34.07a6.29 6.29 0 0 0-6.29 6.3 6.29 6.29 0 0 0 6.3 6.28 6.29 6.29 0 0 0 6.28-6.29A6.29 6.29 0 0 0 6.34.07zm-.01.94a5.4 5.4 0 0 1 5.4 5.4 5.4 5.4 0 0 1-5.4 5.41 5.4 5.4 0 0 1-5.41-5.4A5.4 5.4 0 0 1 6.32 1zM2.8 2.5h-.08a.2.2 0 0 0-.09.05c-.2.16-.14.78.2 2.1.2.73.36 1.12.64 1.53.18.27.27.38.56.67.27.3.6.7.62 1.05-.08.69-.61 1.05-.64 1.63 0 .7.36 1.28 1.06 1.28a.6.6 0 0 0 .28-.06 1.28 1.28 0 0 0 1 .48 1.28 1.28 0 0 0 1-.5c.1.05.19.08.28.08.7 0 1.06-.57 1.06-1.28-.03-.58-.56-.94-.64-1.63.01-.34.35-.75.62-1.05.3-.3.38-.4.56-.67.28-.41.44-.8.63-1.54.35-1.3.4-1.93.21-2.1a.2.2 0 0 0-.09-.03H9.9c-.1 0-.23.05-.38.12-.3.15-.6.37-.94.7-.51.48-.7.76-1.29 1.98-.18.36-.4.8-.66 1.19-.08.05-.28.05-.28.05s-.2 0-.28-.05a9.26 9.26 0 0 1-.66-1.2 5.63 5.63 0 0 0-1.29-1.97 3.72 3.72 0 0 0-.94-.7 1.13 1.13 0 0 0-.38-.12zm.15.5l.04.01c.26.13.52.32.84.62.48.47.6.66 1.2 1.87.14.29.32.64.53 1-.3.11-.58.3-.8.55-.13-.19-.28-.35-.41-.48v-.01l-.02-.01c-.29-.29-.33-.34-.5-.6-.26-.38-.4-.7-.58-1.42-.17-.64-.27-1.11-.3-1.4V3zm6.8 0v.12c-.03.3-.13.77-.3 1.41a4.16 4.16 0 0 1-.57 1.42c-.18.26-.22.31-.51.6h-.01l-.01.02c-.13.13-.28.3-.41.48-.22-.25-.5-.44-.8-.56.21-.35.39-.7.53-1 .6-1.2.72-1.39 1.2-1.86.32-.3.58-.5.84-.62l.04-.01zM5.32 7.93c.42.05.6.4.6.66a.21.21 0 0 1 .03.1.21.21 0 0 1-.22.21.21.21 0 0 1-.04 0h.04c.13 0 .2-.13.2-.3a.21.21 0 0 0-.2-.12.21.21 0 0 0-.21.21.21.21 0 0 0 .17.2c-.27-.01-.62-.22-.62-.48 0-.27-.02-.48.25-.48zm2.06 0c.27 0 .25.21.25.48 0 .26-.36.47-.62.49a.21.21 0 0 1-.04 0 .21.21 0 0 1-.22-.21.21.21 0 0 1 .03-.1c0-.26.18-.61.6-.66zm-.6.66c0 .18.06.31.19.31H7a.21.21 0 0 0 .17-.21.21.21 0 0 0-.21-.21.21.21 0 0 0-.2.11zm-.43.74a.9.9 0 0 1 .6.21c.16.2-.19.6-.6.64l.04.01v.54c0 .06.04.1.1.1h.22a.1.1 0 0 0 .1-.1v-.34l.3.21a1 1 0 0 1-.76.36 1 1 0 0 1-.74-.33l.28-.2v.3c0 .06.05.1.1.1h.22a.1.1 0 0 0 .1-.1v-.54l.04-.01c-.41-.03-.76-.44-.6-.64a.9.9 0 0 1 .6-.21zm0 .85z" fill="#1a1a1a"/></svg>

<?xml version="1.0" encoding="UTF-8" standalone="no"?>
<svg
   xmlns:dc="http://purl.org/dc/elements/1.1/"
   xmlns:cc="http://creativecommons.org/ns#"
   xmlns:rdf="http://www.w3.org/1999/02/22-rdf-syntax-ns#"
   xmlns:svg="http://www.w3.org/2000/svg"
   xmlns="http://www.w3.org/2000/svg"
   xmlns:sodipodi="http://sodipodi.sourceforge.net/DTD/sodipodi-0.dtd"
   xmlns:inkscape="http://www.inkscape.org/namespaces/inkscape"
   width="48"
   height="48"
   viewBox="0 0 12.7 12.7"
   version="1.1"
   id="svg4"
   sodipodi:docname="alc.svg"
   inkscape:version="0.92.4 (5da689c313, 2019-01-14)">
  <metadata
     id="metadata10">
    <rdf:RDF>
      <cc:Work
         rdf:about="">
        <dc:format>image/svg+xml</dc:format>
        <dc:type
           rdf:resource="http://purl.org/dc/dcmitype/StillImage" />
        <dc:title></dc:title>
      </cc:Work>
    </rdf:RDF>
  </metadata>
  <defs
     id="defs8" />
  <sodipodi:namedview
     pagecolor="#ffffff"
     bordercolor="#666666"
     borderopacity="1"
     objecttolerance="10"
     gridtolerance="10"
     guidetolerance="10"
     inkscape:pageopacity="0"
     inkscape:pageshadow="2"
     inkscape:window-width="1087"
     inkscape:window-height="480"
     id="namedview6"
     showgrid="false"
     inkscape:zoom="4.9166667"
     inkscape:cx="2.1355932"
     inkscape:cy="24"
     inkscape:window-x="0"
     inkscape:window-y="25"
     inkscape:window-maximized="0"
     inkscape:current-layer="svg4" />
  <path
     d="M 6.34,0.07 A 6.29,6.29 0 0 0 0.05,6.37 6.29,6.29 0 0 0 6.35,12.65 6.29,6.29 0 0 0 12.63,6.36 6.29,6.29 0 0 0 6.34,0.07 Z M 6.33,1.01 a 5.4,5.4 0 0 1 5.4,5.4 5.4,5.4 0 0 1 -5.4,5.41 A 5.4,5.4 0 0 1 0.92,6.42 5.4,5.4 0 0 1 6.32,1 Z M 2.8,2.5 H 2.72 A 0.2,0.2 0 0 0 2.63,2.55 c -0.2,0.16 -0.14,0.78 0.2,2.1 0.2,0.73 0.36,1.12 0.64,1.53 0.18,0.27 0.27,0.38 0.56,0.67 0.27,0.3 0.6,0.7 0.62,1.05 -0.08,0.69 -0.61,1.05 -0.64,1.63 0,0.7 0.36,1.28 1.06,1.28 a 0.6,0.6 0 0 0 0.28,-0.06 1.28,1.28 0 0 0 1,0.48 1.28,1.28 0 0 0 1,-0.5 c 0.1,0.05 0.19,0.08 0.28,0.08 0.7,0 1.06,-0.57 1.06,-1.28 C 8.66,8.95 8.13,8.59 8.05,7.9 8.06,7.56 8.4,7.15 8.67,6.85 8.97,6.55 9.05,6.45 9.23,6.18 9.51,5.77 9.67,5.38 9.86,4.64 c 0.35,-1.3 0.4,-1.93 0.21,-2.1 A 0.2,0.2 0 0 0 9.98,2.51 H 9.9 C 9.8,2.51 9.67,2.56 9.52,2.63 9.22,2.78 8.92,3 8.58,3.33 8.07,3.81 7.88,4.09 7.29,5.31 7.11,5.67 6.89,6.11 6.63,6.5 6.55,6.55 6.35,6.55 6.35,6.55 c 0,0 -0.2,0 -0.28,-0.05 A 9.26,9.26 0 0 1 5.41,5.3 5.63,5.63 0 0 0 4.12,3.33 3.72,3.72 0 0 0 3.18,2.63 1.13,1.13 0 0 0 2.8,2.51 Z M 2.95,3 2.99,3.01 C 3.25,3.14 3.51,3.33 3.83,3.63 4.31,4.1 4.43,4.29 5.03,5.5 5.17,5.79 5.35,6.14 5.56,6.5 5.26,6.61 4.98,6.8 4.76,7.05 4.63,6.86 4.48,6.7 4.35,6.57 V 6.56 L 4.33,6.55 C 4.04,6.26 4,6.21 3.83,5.95 3.57,5.57 3.43,5.25 3.25,4.53 3.08,3.89 2.98,3.42 2.95,3.13 Z m 6.8,0 V 3.12 C 9.72,3.42 9.62,3.89 9.45,4.53 A 4.16,4.16 0 0 1 8.88,5.95 C 8.7,6.21 8.66,6.26 8.37,6.55 H 8.36 L 8.35,6.57 C 8.22,6.7 8.07,6.87 7.94,7.05 7.72,6.8 7.44,6.61 7.14,6.49 7.35,6.14 7.53,5.79 7.67,5.49 8.27,4.29 8.39,4.1 8.87,3.63 9.19,3.33 9.45,3.13 9.71,3.01 Z M 5.32,7.93 c 0.42,0.05 0.6,0.4 0.6,0.66 a 0.21,0.21 0 0 1 0.03,0.1 0.21,0.21 0 0 1 -0.22,0.21 0.21,0.21 0 0 1 -0.04,0 h 0.04 c 0.13,0 0.2,-0.13 0.2,-0.3 A 0.21,0.21 0 0 0 5.73,8.48 0.21,0.21 0 0 0 5.52,8.69 0.21,0.21 0 0 0 5.69,8.89 C 5.42,8.88 5.07,8.67 5.07,8.41 5.07,8.14 5.05,7.93 5.32,7.93 Z m 2.06,0 c 0.27,0 0.25,0.21 0.25,0.48 0,0.26 -0.36,0.47 -0.62,0.49 A 0.21,0.21 0 0 1 6.97,8.9 0.21,0.21 0 0 1 6.75,8.69 0.21,0.21 0 0 1 6.78,8.59 c 0,-0.26 0.18,-0.61 0.6,-0.66 z m -0.6,0.66 c 0,0.18 0.06,0.31 0.19,0.31 H 7 A 0.21,0.21 0 0 0 7.17,8.69 0.21,0.21 0 0 0 6.96,8.48 0.21,0.21 0 0 0 6.76,8.59 Z M 6.35,9.33 a 0.9,0.9 0 0 1 0.6,0.21 c 0.16,0.2 -0.19,0.6 -0.6,0.64 l 0.04,0.01 v 0.54 c 0,0.06 0.04,0.1 0.1,0.1 h 0.22 a 0.1,0.1 0 0 0 0.1,-0.1 v -0.34 l 0.3,0.21 A 1,1 0 0 1 6.35,10.96 1,1 0 0 1 5.61,10.63 l 0.28,-0.2 v 0.3 c 0,0.06 0.05,0.1 0.1,0.1 h 0.22 a 0.1,0.1 0 0 0 0.1,-0.1 V 10.19 L 6.35,10.18 C 5.94,10.15 5.59,9.74 5.75,9.54 a 0.9,0.9 0 0 1 0.6,-0.21 z m 0,0.85 z"
     id="path2"
     inkscape:connector-curvature="0"
     style="fill:#1a1a1a" />
</svg>
